X:1
T:Title
%%score { ( 1 4 ) | ( 2 3 ) }
L:1/8
Q:1/4=81
M:6/8
K:Eb
V:1 treble nm="Grand Piano"
V:4 treble 
V:2 bass 
V:3 bass 
V:1
 [B,GB][_G=A][B,=GB] [Ge][Ad][DAc] | .[EGB]2 [EA] G3 | FGF d2 c | B6 | B=AB [Ge][Ad].[CAc] | %5
w: Clarence~Hudson * * * * *|||||
 .[EGB]2 [EA] [B,G]2- [B,_DG] | BAC [DG]2 [DF] | E6 |] %8
w: |||
V:2
 z CE, B,CE, | z DC [E,B,E]3 | [F,=A,E]2 [F,A,E] [F,A,E]2 [F,A,E] | F,G,A, CB,A, | %4
 [E,E]-[E,_G,E][E,=G,E] B,/G,/A,/.B,D/ | z DC E,2 =E, | [F,A,C]2 [F,A,] [B,,B,]2 [B,,A,] | %7
 [E,G,]6 |] %8
V:3
 .E,3 .E,3 | E,3 z3 | x6 | B,,6 | .G,3 E,2 E, | E,3 z3 | x6 | x6 |] %8
V:4
 x6 | x6 | x6 | DEF AGF | x6 | z3 .E3 | x6 | x6 |] %8

